X:1
T: Flirtation
P:Kerr's Collection p.29 No.2
R:Jig
Q:180
K:D
M:6/8
L:1/16
f4f2 f2e2d2|f4f2 f2e2d2|d2f2a2 d'2a2f2|e4e2 e2a2g2|f4f2 f2e2d2|f2g2f2 f2e2d2|d2f2a2 d'4d'2|e'2d'2c'2 d'4f2|
d4b2 a4b2|f4e2 d4A2|B2c2d2 e4c2|d6 d4a2|a4f2 a2b2c'2|d'4d'2 c'4c'2|b4a2 f4a2|b6 b4a2|
a4f2 a2b2c'2|d'4d'2 c'4b2|b4a2 f4a2|b6 c'4d'2|a4f2 a4b2|f4e2 d4A2|B2c2d2 e4c2|d6 d'6|
f4f2 f2e2d2|f4f2 f2e2d2|d2f2a2 d'2a2f2|e4e2 e2a2g2|f4f2 f2e2d2|f2g2f2 f2e2d2|d2f2a2 d'4d'2|e'2d'2c'2 d'6||
